X: 33
T: Do you want anymore?
C: anon.
O: Ireland
B: Francis O'Neill: "The Dance Music of Ireland" (1907) no. 33
R: Double jig
Z: Transcribed by Frank Nordberg - http://www.musicaviva.com
F: http://www.musicaviva.com/abc/tunes/ireland/oneill-1001/oneill-1001-003
3.abc
M: 6/8
L: 1/8
Q: 3/8=128
K: D
G|DFA A2B|cAd cAG|Adc deg|fed cAG|FDF GAB|cAd cAG|Adc AGE|FDDD2:|
g|fdg fdc|Adc Ade|fdg fdc|ABc d2e|aba gag|fgf edc|Adc AGE|FDDD2:|
W:
W:
W: From Musica Viva - http://www.musicaviva.com
W: the Internet center for free sheet music downloads.


